X:2642
T:Polonäs i D efter Conrad Sandsten
T:(Skräddarepolska)
S:efter Conrad Sandsten
B:Conrad Sandstens notbok
B:[[http://www.smus.se/earkiv/fmk/browselarge.php?lang=sw&katalogid=M+170&bildnr=00019|SMUS - katalog M170 bild 19]] (näst längst ned t.v.)
B:Jämför [[http://www.smus.se/earkiv/fmk/browselarge.php?lang=sw&katalogid=M+170&bildnr=00025|SMUS - katalog M170 bild 25]] (längst ned t.h.)
B:Jämför [[http://www.smus.se/earkiv/fmk/browselarge.php?lang=sw&katalogid=Upprop+22&bildnr=00129|SMUS - katalog Upprop 22 bild 129]] och [[http://www.smus.se/earkiv/fmk/browselarge.php?lang=sw&katalogid=Upprop+22&bildnr=00131|bild 131]] upptecknade av [[Personer/Karl Petter Leffler]] - Polska efter [[Personer/Olof Petter Sundvall]] och "Fackeldansen".
B:Jämför [[http://www.smus.se/earkiv/fmk/browselarge.php?lang=sw&katalogid=Ma+1&bildnr=00012|SMUS - katalog Ma1 bild 12]] nr 33 ur [[Notböcker/Pehr Anderssons notbok]]
B:Jämför [[http://www.smus.se/earkiv/fmk/browselarge.php?lang=sw&katalogid=Ma+10&bildnr=00024|SMUS - katalog Ma10 bild 24]] nr 180 ur [[Notböcker/Sam Wåhlbergs notbok]] 
B:Jämför SMUS Ma18 [[http://www.smus.se/earkiv/fmk/browselarge.php?lang=sw&katalogid=Ma+18&bildnr=00006|bild 6]] nr 12 och [[http://www.smus.se/earkiv/fmk/browselarge.php?lang=sw&katalogid=Ma+18&bildnr=00007|bild 7]] nr 17 ur [[Notböcker/Lars Larssons notbok]]
B:Jämför [[http://www.smus.se/earkiv/fmk/browselarge.php?lang=sw&katalogid=M+8&bildnr=00005|SMUS - katalog M8 bild 5]] efter [[Personer/Pehr Mårtensson]]
B:Jämför [[http://www.smus.se/earkiv/fmk/browselarge.php?lang=sw&katalogid=M+132&bildnr=00005|SMUS - katalog M132 bild 5]] nr 2 ur [[Notböcker/Anders PlanMarcks notbok]]
B:Jämför [[http://www.smus.se/earkiv/fmk/browselarge.php?lang=sw&katalogid=M+93&bildnr=00020|SMUS - katalog M93 bild 20]] nr 35 efter [[Personer/Andreas Grevelius]]
B:Jämför [[http://www.smus.se/earkiv/fmk/browselarge.php?lang=sw&katalogid=MMD+67&bildnr=00022|SMUS - katalog MMD67 bild 22]] nr 42 ur [[Notböcker/Johan Erik Carlssons notbok]]
B:Jämför [[http://www.smus.se/earkiv/fmk/browselarge.php?lang=sw&katalogid=Ma+4&bildnr=00030|SMUS - katalog Ma4 bild 30]] nr 120 ur [[Notböcker/Kumlins notsamling]]
B:Jämför [[http://www.smus.se/earkiv/fmk/browselarge.php?lang=sw&katalogid=%C5n+1&bildnr=00050|SMUS - katalog Ån1 bild 50]] nr 86
B:Jämför [[http://www.smus.se/earkiv/fmk/browselarge.php?lang=sw&katalogid=MMD+66&bildnr=00108|SMUS - katalog MMD66 bild 108]] nr 105
B:Jämför [[http://www.smus.se/earkiv/fmk/browselarge.php?lang=sw&katalogid=MMD+68&bildnr=00004|SMUS - katalog MMD68 bild 4]] nr 1
B:Jämför [[http://www.smus.se/earkiv/fmk/browselarge.php?lang=sw&katalogid=Ma+7&bildnr=00031|SMUS - katalog Ma7 bild 31]] nr 88 efter [[Personer/Andreas Dahlgren]]
B:Jämför [[http://www.smus.se/earkiv/fmk/browselarge.php?lang=sw&katalogid=M+41+I&bildnr=00005|SMUS - katalog M41 bild 5]]
B:Jämför [[http://www.smus.se/earkiv/fmk/browselarge.php?lang=sw&katalogid=M+46&bildnr=00013|SMUS - katalog M46 bild 13]] nr 36 ur [[Notböcker/Nils-Johan Nybergs notbok]]
B:Jämför [[http://www.smus.se/earkiv/fmk/browselarge.php?lang=sw&katalogid=M+126b&bildnr=00034|SMUS - katalog M126b bild 34]] nr 205
B:Jämför [[http://www.smus.se/earkiv/fmk/browselarge.php?lang=sw&katalogid=M+30a&bildnr=00007|SMUS - katalog M30a bild 7]] nr 21 och [[http://www.smus.se/earkiv/fmk/browselarge.php?lang=sw&katalogid=M+30a&bildnr=00012|bild 12]] nr 36
B:Jämför [[http://www.smus.se/earkiv/fmk/browselarge.php?lang=sw&katalogid=M+33a&bildnr=00008|SMUS - katalog M33a bild 8]] nr 32
B:Jämför [[http://www.smus.se/earkiv/fmk/browselarge.php?lang=sw&katalogid=M+182&bildnr=00040|SMUS - katalog M182 bild 40]] andra uppifrån ur [[Notböcker/Fredric Lindgrens notbok]]
B:Jämför [[http://www.smus.se/earkiv/fmk/browselarge.php?lang=sw&katalogid=MMD+20&bildnr=00006|SMUS - katalog MMD20 bild 6]] nr 5 ur [[Notböcker/Johan Anderssons notbok]]
B:Jämför [[http://www.smus.se/earkiv/fmk/browselarge.php?lang=sw&katalogid=MMD+63&bildnr=00005|SMUS - katalog MMD63 bild 5]] nr 33 ur [[Notböcker/Anders Perssons notbok]]
B:Jämför [[http://www.smus.se/earkiv/fmk/browselarge.php?lang=sw&katalogid=Hs+12&bildnr=00012|SMUS - katalog Hs12 bild 12]] nr 21 
B: Jämför [[http://www.smus.se/earkiv/fmk/browselarge.php?lang=sw&katalogid=Ma+6&bildnr=00088|SMUS - katalog Ma6 bild 88]] efter [[Personer/Petter Dufva]]
N:Jämför Sexdregasamlingen del 1, nr 52.
O:Kumla, Närke
Z:Nils L
M:3/4
L:1/16
R:Polonäs
K:D
.D2.D.E F2D2 F2D2 | .F2.F.G .A2.F2 .A2.F2 | A2Bc d4 A2G2 | F2E2 E4 D4 :: 
f2gf .e2.e2 .e2.e2 | f2gf .e2.e2 .e2.e2 | f2f2 g2g2 f2f2 | e2dc d4 D4 :| 
(:musicend:)
(:music:)
